app/images/icons/eye.svg

<svg width="16" height="13" viewBox="0 0 16 13" fill="none" xmlns="http://www.w3.org/2000/svg">
<path d="M7.98633 0.375C9.09831 0.393229 10.0918 0.611979 10.9668 1.03125C11.8418 1.45052 12.6074 1.97005 13.2637 2.58984C13.9017 3.19141 14.4303 3.8112 14.8496 4.44922C15.2689 5.08724 15.5879 5.66146 15.8066 6.17188C15.8978 6.39062 15.8978 6.60938 15.8066 6.82812C15.5879 7.33854 15.2689 7.91276 14.8496 8.55078C14.4303 9.1888 13.9017 9.80859 13.2637 10.4102C12.6074 11.0299 11.8418 11.5495 10.9668 11.9688C10.0918 12.388 9.09831 12.6068 7.98633 12.625C6.87435 12.6068 5.88086 12.388 5.00586 11.9688C4.13086 11.5495 3.36523 11.0299 2.70898 10.4102C2.07096 9.80859 1.54232 9.1888 1.12305 8.55078C0.703776 7.91276 0.39388 7.33854 0.193359 6.82812C0.102214 6.60938 0.102214 6.39062 0.193359 6.17188C0.39388 5.66146 0.703776 5.08724 1.12305 4.44922C1.54232 3.8112 2.07096 3.19141 2.70898 2.58984C3.36523 1.97005 4.13086 1.45052 5.00586 1.03125C5.88086 0.611979 6.87435 0.393229 7.98633 0.375ZM4.04883 6.5C4.04883 7.21094 4.22201 7.86719 4.56836 8.46875C4.91471 9.07031 5.39779 9.55339 6.01758 9.91797C6.63737 10.2643 7.29362 10.4375 7.98633 10.4375C8.67904 10.4375 9.33529 10.2643 9.95508 9.91797C10.5749 9.55339 11.0579 9.07031 11.4043 8.46875C11.7507 7.86719 11.9238 7.21094 11.9238 6.5C11.9238 5.78906 11.7507 5.13281 11.4043 4.53125C11.0579 3.92969 10.5749 3.44661 9.95508 3.08203C9.33529 2.73568 8.67904 2.5625 7.98633 2.5625C7.29362 2.5625 6.63737 2.73568 6.01758 3.08203C5.39779 3.44661 4.91471 3.92969 4.56836 4.53125C4.22201 5.13281 4.04883 5.78906 4.04883 6.5ZM7.98633 4.75C7.98633 4.54948 7.95898 4.36719 7.9043 4.20312C7.86784 4.02083 7.93164 3.91146 8.0957 3.875C8.66081 3.91146 9.17122 4.10286 9.62695 4.44922C10.0645 4.79557 10.3652 5.2513 10.5293 5.81641C10.6934 6.54557 10.6022 7.21094 10.2559 7.8125C9.9095 8.41406 9.38086 8.82422 8.66992 9.04297C7.94076 9.20703 7.27539 9.11589 6.67383 8.76953C6.07227 8.42318 5.66211 7.89453 5.44336 7.18359C5.38867 6.98307 5.36133 6.79167 5.36133 6.60938C5.39779 6.44531 5.50716 6.38151 5.68945 6.41797C5.85352 6.47266 6.03581 6.5 6.23633 6.5C6.72852 6.48177 7.13867 6.30859 7.4668 5.98047C7.79492 5.65234 7.9681 5.24219 7.98633 4.75Z" fill="#737580"/>
</svg>

<svg width="16" height="13" fill="none" xmlns="http://www.w3.org/2000/svg"><path d="M7.986.375c1.112.018 2.106.237 2.98.656.876.42 1.641.94 2.298 1.559a10.498 10.498 0 011.586 1.86c.419.637.738 1.211.957 1.722a.821.821 0 010 .656c-.22.51-.538 1.085-.957 1.723a10.5 10.5 0 01-1.586 1.86 8.95 8.95 0 01-2.297 1.558c-.875.419-1.869.638-2.98.656-1.113-.018-2.106-.237-2.981-.656a8.949 8.949 0 01-2.297-1.559 10.498 10.498 0 01-1.586-1.86c-.42-.637-.73-1.211-.93-1.722a.822.822 0 010-.656c.2-.51.51-1.085.93-1.723.42-.638.948-1.258 1.586-1.86a8.946 8.946 0 012.297-1.558C5.88.612 6.874.393 7.986.375zM4.05 6.5c0 .71.173 1.367.52 1.969a3.949 3.949 0 001.449 1.449 3.98 3.98 0 003.938 0 3.947 3.947 0 001.448-1.45c.347-.6.52-1.257.52-1.968 0-.71-.173-1.367-.52-1.969a3.947 3.947 0 00-1.449-1.449 3.976 3.976 0 00-1.969-.52c-.692 0-1.349.174-1.968.52a3.947 3.947 0 00-1.45 1.45 3.877 3.877 0 00-.52 1.968zm3.937-1.75c0-.2-.027-.383-.082-.547-.036-.182.028-.292.192-.328a2.775 2.775 0 011.531.574c.438.347.738.802.902 1.367.164.73.073 1.395-.273 1.997-.347.601-.875 1.011-1.586 1.23-.73.164-1.395.073-1.996-.273-.602-.347-1.012-.875-1.23-1.586a2.182 2.182 0 01-.083-.575c.037-.164.146-.227.328-.191.165.055.347.082.547.082.493-.018.903-.191 1.23-.52.329-.328.502-.738.52-1.23z" fill="#737580"/></svg>
